assets/img/icons/duotone-icons/Layout/Layout-top-panel-3.svg

<?xml version="1.0" encoding="UTF-8"?>
<svg width="24px" height="24px" viewBox="0 0 24 24" version="1.1" xmlns="http://www.w3.org/2000/svg" xmlns:xlink="http://www.w3.org/1999/xlink">
    <!-- Generator: Sketch 52.2 (67145) - http://www.bohemiancoding.com/sketch -->
    <title>Stockholm-icons / Layout / Layout-top-panel-3</title>
    <desc>Created with Sketch.</desc>
    <g id="Stockholm-icons-/-Layout-/-Layout-top-panel-3" stroke="none" stroke-width="1" fill="none" fill-rule="evenodd">
        <rect id="Rectangle-17" x="0" y="0" width="24" height="24"></rect>
        <path d="M3,4 L20,4 C20.5522847,4 21,4.44771525 21,5 L21,7 C21,7.55228475 20.5522847,8 20,8 L3,8 C2.44771525,8 2,7.55228475 2,7 L2,5 C2,4.44771525 2.44771525,4 3,4 Z M3,10 L13,10 C13.5522847,10 14,10.4477153 14,11 L14,19 C14,19.5522847 13.5522847,20 13,20 L3,20 C2.44771525,20 2,19.5522847 2,19 L2,11 C2,10.4477153 2.44771525,10 3,10 Z" id="Combined-Shape" fill="#335EEA"></path>
        <rect id="Rectangle-7-Copy-2" fill="#335EEA" opacity="0.3" x="16" y="10" width="5" height="10" rx="1"></rect>
    </g>
</svg>

<svg width="24" height="24" viewBox="0 0 24 24" xmlns="http://www.w3.org/2000/svg"><g fill="none" fill-rule="evenodd"><path d="M0 0h24v24H0z"/><path d="M3 4h17a1 1 0 011 1v2a1 1 0 01-1 1H3a1 1 0 01-1-1V5a1 1 0 011-1zm0 6h10a1 1 0 011 1v8a1 1 0 01-1 1H3a1 1 0 01-1-1v-8a1 1 0 011-1z" fill="#335EEA"/><rect fill="#335EEA" opacity=".3" x="16" y="10" width="5" height="10" rx="1"/></g></svg>
